static/images/pieces/xiangqi/wikim/red_king.svg

<?xml version="1.0" encoding="UTF-8" standalone="no"?>
<svg
   width="100"
   height="100"
   version="1.1"
   id="svg1582"
   sodipodi:docname="red_king.svg"
   viewBox="-6 -6 112 112"
   inkscape:version="1.2.2 (b0a8486541, 2022-12-01)"
   xmlns:inkscape="http://www.inkscape.org/namespaces/inkscape"
   xmlns:sodipodi="http://sodipodi.sourceforge.net/DTD/sodipodi-0.dtd"
   xmlns="http://www.w3.org/2000/svg"
   xmlns:svg="http://www.w3.org/2000/svg"
   xmlns:rdf="http://www.w3.org/1999/02/22-rdf-syntax-ns#"
   xmlns:cc="http://creativecommons.org/ns#"
   xmlns:dc="http://purl.org/dc/elements/1.1/">
  <defs
     id="defs1586" />
  <sodipodi:namedview
     id="namedview1584"
     pagecolor="#ffffff"
     bordercolor="#666666"
     borderopacity="1.0"
     inkscape:showpageshadow="2"
     inkscape:pageopacity="0.0"
     inkscape:pagecheckerboard="0"
     inkscape:deskcolor="#d1d1d1"
     showgrid="false"
     inkscape:zoom="2.36"
     inkscape:cx="50.211864"
     inkscape:cy="50"
     inkscape:window-width="1920"
     inkscape:window-height="1022"
     inkscape:window-x="0"
     inkscape:window-y="0"
     inkscape:window-maximized="1"
     inkscape:current-layer="svg1582" />
  <title
     id="title1574">帥</title>
  <!-- 此字型為全字庫正楷體，中華民國國家發展委員會，CNS11643中文標準交換碼全字庫網站，https://www.cns11643.gov.tw/。 -->
  <circle
     r="48.5"
     cx="50"
     cy="50"
     stroke-width="3"
     stroke="#000000"
     fill="#ffddaa"
     id="circle1576" />
  <circle
     r="43.5"
     cx="50"
     cy="50"
     stroke-width="3"
     stroke="#cc0000"
     fill="none"
     id="circle1578" />
  <path
     transform="translate(15,14)"
     fill="#cc0000"
     d="m 41.1,4.8 c -0.6,0.6 -0.6,0.7 0.3,3.1 0.4,1.1 0.6,3.2 0.6,8.6 l 0.1,7.1 -4.7,0.1 c -5.8,0 -6,0.1 -4.8,3.2 1,2.8 0.8,6.7 -0.6,10.7 -0.9,2.7 -0.9,2.8 -0.4,4.7 0.9,3.1 2.6,4.3 3.9,2.9 1,-1.2 2.3,-6.7 2.7,-12.1 l 0.5,-5.2 1.2,-0.3 c 2.3,-0.6 2.1,-2 2.2,18.6 0.1,20.1 0.1,20.7 1.8,20.9 2.1,0.3 3.3,-3.8 3.7,-13.4 0.2,-3.8 0.5,-11.5 0.6,-17.1 l 0.3,-10.2 2.9,-0.3 c 1.6,-0.2 3,-0.2 3.1,0 0.3,0.3 0.3,9.5 0,12.6 -0.2,2.3 0.2,2.2 -3.7,1.7 -1.6,-0.2 -1.8,-0.2 -1.8,0.4 0,0.3 0.9,1.6 2,2.8 1.1,1.2 2.5,2.8 3.1,3.4 1.3,1.6 1.9,1.6 3.4,0.3 2.4,-2.1 3.2,-5.3 3.6,-14.4 0.1,-3.2 0.4,-5.7 0.8,-6.7 0.5,-1.6 0.5,-1.7 -0.2,-2.5 -0.5,-0.5 -1.7,-1.3 -2.9,-1.8 l -2.1,-1 -2.4,0.5 c -1.3,0.4 -3.1,0.7 -4.1,0.7 l -1.7,0.1 0.1,-5.4 c 0,-3 0.3,-6.5 0.5,-7.8 C 49.5,6.6 49.5,6.6 48.6,5.9 46.7,4.4 42.2,3.7 41.1,4.8 M 18.1,6 c -0.3,0.3 -0.6,1.3 -0.8,2.2 -0.2,1.9 -2.5,8.1 -3.7,9.9 -0.6,1.1 -0.7,1.2 -2.2,1 -1.7,-0.3 -3,0.2 -3,1.1 0,0.2 0.3,1.1 0.7,1.8 0.3,0.7 0.7,1.8 0.8,2.5 0.4,1.9 -0.4,16.3 -1,19.6 -1,5.5 -1,6.4 -0.2,8.2 1,2.3 2,3.4 3.3,3.4 0.8,0 1,-0.2 1.4,-1.6 l 0.4,-1.5 2.3,-0.3 c 1.2,-0.1 4.3,-0.4 6.7,-0.7 2.5,-0.2 4.7,-0.6 5,-0.8 0.7,-0.6 0.7,-1.4 0,-2 -0.6,-0.4 -0.6,-0.6 0.2,-3.1 0.4,-1.6 1.1,-3.6 1.6,-4.5 1.2,-2.3 1,-3 -1.1,-4.2 -2.7,-1.4 -3.9,-1.5 -6.1,-0.4 -2.5,1.2 -7.4,2.5 -7.7,1.9 -0.2,-0.4 -0.1,-3.9 0.2,-4.1 0.1,-0.1 2.4,-0.4 5.3,-0.7 2.8,-0.3 5.6,-0.6 6,-0.7 1.2,-0.4 1.7,-1.3 1.1,-2.3 C 27,30 27,29.5 28,27.1 c 0.6,-1.5 1.5,-3.2 1.9,-3.7 0.5,-0.6 0.9,-1.3 0.9,-1.7 0,-0.9 -1.9,-2.3 -4,-3 -1.5,-0.5 -1.6,-0.5 -4.6,0.5 -3.5,1.2 -6.5,1.7 -6.5,1.2 0,-0.2 0.6,-0.8 1.3,-1.3 1.6,-1.2 7.8,-9.1 7.8,-9.9 0,-0.9 -1.2,-2 -3.1,-2.9 C 19.9,5.5 18.9,5.4 18.1,6 m 5,17.4 c 0,0.8 -1.1,5.5 -1.3,5.7 -0.2,0.2 -1.7,0.5 -3.5,0.8 L 15,30.3 v -3.1 -3.1 h 1.2 c 0.6,0 2,-0.2 3.1,-0.5 2.4,-0.5 3.8,-0.6 3.8,-0.2 m -0.4,18.7 c 0,2.9 -0.4,5.2 -1,5.5 -0.9,0.5 -7,1.2 -7.3,0.9 -0.2,-0.2 -0.2,-1.7 -0.1,-3.3 l 0.2,-3 3.1,-0.6 c 1.7,-0.3 3.2,-0.7 3.3,-0.8 0.1,-0.1 0.6,-0.2 1,-0.2 0.8,0 0.8,0.2 0.8,1.5"
     id="path1580" />
  <metadata
     id="metadata10039">
    <rdf:RDF>
      <cc:Work
         rdf:about="">
        <dc:title>帥</dc:title>
      </cc:Work>
    </rdf:RDF>
  </metadata>
</svg>

<?xml version="1.0" encoding="UTF-8"?>
<svg width="100" height="100"
	xmlns="http://www.w3.org/2000/svg">
	<title>帥</title>
	<!-- 此字型為全字庫正楷體，中華民國國家發展委員會，CNS11643中文標準交換碼全字庫網站，https://www.cns11643.gov.tw/。 -->
	<circle r="48.5" cx="50" cy="50" stroke-width="3" stroke="#000" fill="#fda"/>
	<circle r="43.5" cx="50" cy="50" stroke-width="3" stroke="#c00" fill="none"/>
	<path transform="translate(15,14)" fill="#c00" d="M41.1 4.8 C40.5 5.4,40.5 5.5,41.4 7.9 C41.8 9.0,42.0 11.1,42.0 16.5 L42.1 23.6 37.4 23.7 C31.6 23.7,31.4 23.8,32.6 26.9 C33.6 29.7,33.4 33.6,32.0 37.6 C31.1 40.3,31.1 40.4,31.6 42.3 C32.5 45.4,34.2 46.6,35.5 45.2 C36.5 44.0,37.8 38.5,38.2 33.1 L38.7 27.9 39.9 27.6 C42.2 27.0,42.0 25.6,42.1 46.2 C42.2 66.3,42.2 66.9,43.9 67.1 C46.0 67.4,47.2 63.3,47.6 53.7 C47.8 49.9,48.1 42.2,48.2 36.6 L48.5 26.4 51.4 26.1 C53.0 25.9,54.4 25.9,54.5 26.1 C54.8 26.4,54.8 35.6,54.5 38.7 C54.3 41.0,54.7 40.9,50.8 40.4 C49.2 40.2,49.0 40.2,49.0 40.8 C49.0 41.1,49.9 42.4,51.0 43.6 C52.1 44.8,53.5 46.4,54.1 47.0 C55.4 48.6,56.0 48.6,57.5 47.3 C59.9 45.2,60.7 42.0,61.1 32.9 C61.2 29.7,61.5 27.2,61.9 26.2 C62.4 24.6,62.4 24.5,61.7 23.7 C61.2 23.2,60.0 22.4,58.8 21.9 L56.7 20.9 54.3 21.4 C53.0 21.8,51.2 22.1,50.2 22.1 L48.5 22.2 48.6 16.8 C48.6 13.8,48.9 10.3,49.1 9.0 C49.5 6.6,49.5 6.6,48.6 5.9 C46.7 4.4,42.2 3.7,41.1 4.8 M18.1 6.0 C17.8 6.3,17.5 7.3,17.3 8.2 C17.1 10.1,14.8 16.3,13.6 18.1 C13.0 19.2,12.9 19.3,11.4 19.1 C9.7 18.8,8.4 19.3,8.4 20.2 C8.4 20.4,8.7 21.3,9.1 22.0 C9.4 22.7,9.8 23.8,9.9 24.5 C10.3 26.4,9.5 40.8,8.9 44.1 C7.9 49.6,7.9 50.5,8.7 52.3 C9.7 54.6,10.7 55.7,12.0 55.7 C12.8 55.7,13.0 55.5,13.4 54.1 L13.8 52.6 16.1 52.3 C17.3 52.2,20.4 51.9,22.8 51.6 C25.3 51.4,27.5 51.0,27.8 50.8 C28.5 50.2,28.5 49.4,27.8 48.8 C27.2 48.4,27.2 48.2,28.0 45.7 C28.4 44.1,29.1 42.1,29.6 41.2 C30.8 38.9,30.6 38.2,28.5 37.0 C25.8 35.6,24.6 35.5,22.4 36.6 C19.9 37.8,15.0 39.1,14.7 38.5 C14.5 38.1,14.6 34.6,14.9 34.4 C15.0 34.3,17.3 34.0,20.2 33.7 C23.0 33.4,25.8 33.1,26.2 33.0 C27.4 32.6,27.9 31.7,27.3 30.7 C27.0 30.0,27.0 29.5,28.0 27.1 C28.6 25.6,29.5 23.9,29.9 23.4 C30.4 22.8,30.8 22.1,30.8 21.7 C30.8 20.8,28.9 19.4,26.8 18.7 C25.3 18.2,25.2 18.2,22.2 19.2 C18.7 20.4,15.7 20.9,15.7 20.4 C15.7 20.2,16.3 19.6,17.0 19.1 C18.6 17.9,24.8 10.0,24.8 9.2 C24.8 8.3,23.6 7.2,21.7 6.3 C19.9 5.5,18.9 5.4,18.1 6.0 M23.1 23.4 C23.1 24.2,22.0 28.9,21.8 29.1 C21.6 29.3,20.1 29.6,18.3 29.9 L15.0 30.3 15.0 27.2 L15.0 24.1 16.2 24.1 C16.8 24.1,18.2 23.9,19.3 23.6 C21.7 23.1,23.1 23.0,23.1 23.4 M22.7 42.1 C22.7 45.0,22.3 47.3,21.7 47.6 C20.8 48.1,14.7 48.8,14.4 48.5 C14.2 48.3,14.2 46.8,14.3 45.2 L14.5 42.2 17.6 41.6 C19.3 41.3,20.8 40.9,20.9 40.8 C21.0 40.7,21.5 40.6,21.9 40.6 C22.7 40.6,22.7 40.8,22.7 42.1 "/>
</svg>
